X: 38733
T: Strictly Sambuca
R: reel
M: 4/4
K: Amajor
Fc (3ccc fccc-|cABc AFFE|Fc (3ccc fccB|caga geBc|
z2 cc fccc-|cABc BAGE|DEFA Bcef-|faec BAGA:|
|:F2 FE FGAB-|BABc BAGc|BE (3EEE EFGA|BABc agfe|
fc (3ccc eB (3BBB|cA (3AAA eAcB|AEFA Bcef-|faec BAGA:|

